packages/foundations/assets/icons/functional/images/social/face_smiling_14.svg

<svg width="14" height="14" viewBox="0 0 14 14" fill="none" xmlns="http://www.w3.org/2000/svg">
<g clip-path="url(#clip0_187_403)">
<path fill-rule="evenodd" clip-rule="evenodd" d="M6.99998 2.10001C9.70618 2.10001 11.9 4.29381 11.9 7.00001C11.9 9.70621 9.70618 11.9 6.99998 11.9C4.29378 11.9 2.09998 9.70621 2.09998 7.00001C2.09998 4.29381 4.29378 2.10001 6.99998 2.10001ZM6.99998 3.50001C5.07008 3.50001 3.49998 5.07011 3.49998 7.00001C3.49998 8.92991 5.07008 10.5 6.99998 10.5C8.92988 10.5 10.5 8.92991 10.5 7.00001C10.5 5.07011 8.92988 3.50001 6.99998 3.50001ZM8.41258 7.50401C8.60228 7.50401 8.79058 7.58031 8.92848 7.73011C9.19028 8.01501 9.17138 8.45811 8.88648 8.71921C8.80528 8.79411 8.06048 9.44931 6.99788 9.44931C5.93528 9.44931 5.19468 8.79901 5.11348 8.72481C4.82998 8.46581 4.81108 8.02971 5.06728 7.74411C5.32418 7.45711 5.76518 7.43471 6.05358 7.68811C6.05778 7.69161 6.47148 8.05001 6.99858 8.05001C7.51728 8.05001 7.92818 7.70001 7.94498 7.68531C8.07798 7.56421 8.24598 7.50471 8.41258 7.50401ZM5.59998 4.90001C6.08322 4.90001 6.47498 5.29176 6.47498 5.77501C6.47498 6.25826 6.08322 6.65001 5.59998 6.65001C5.11673 6.65001 4.72498 6.25826 4.72498 5.77501C4.72498 5.29176 5.11673 4.90001 5.59998 4.90001ZM8.39998 4.90001C8.88322 4.90001 9.27498 5.29176 9.27498 5.77501C9.27498 6.25826 8.88322 6.65001 8.39998 6.65001C7.91673 6.65001 7.52498 6.25826 7.52498 5.77501C7.52498 5.29176 7.91673 4.90001 8.39998 4.90001Z" fill="#1A1C1F"/>
</g>
<defs>
<clipPath id="clip0_187_403">
<rect width="14" height="14" fill="white"/>
</clipPath>
</defs>
</svg>

<svg xmlns="http://www.w3.org/2000/svg" width="14" height="14" fill="none"><g clip-path="url(#a)"><path fill="#1A1C1F" fill-rule="evenodd" d="M7 2.1a4.9 4.9 0 1 1 0 9.8 4.9 4.9 0 0 1 0-9.8m0 1.4C5.07 3.5 3.5 5.07 3.5 7s1.57 3.5 3.5 3.5 3.5-1.57 3.5-3.5S8.93 3.5 7 3.5m1.413 4.004a.699.699 0 0 1 .473 1.215c-.08.075-.826.73-1.888.73-1.063 0-1.803-.65-1.885-.724a.696.696 0 0 1-.046-.98.7.7 0 0 1 .987-.057c.004.004.417.362.945.362.518 0 .93-.35.946-.365a.7.7 0 0 1 .468-.181M5.6 4.9a.875.875 0 1 1 0 1.75.875.875 0 0 1 0-1.75m2.8 0a.875.875 0 1 1 0 1.75.875.875 0 0 1 0-1.75" clip-rule="evenodd"/></g><defs><clipPath id="a"><path fill="#fff" d="M0 0h14v14H0z"/></clipPath></defs></svg>
